X:1
T:Magnum hereditatis
T:Andrea Gabrieli
T:Source : Liber primus Ecclesiasticarum Cantionum---Venetia---Ang.Gardano---1576. Editor : André Vierendeels (11/09/17).
T:Magnum hereditatis
T:©
T:©
T:©
T:©
T:©
C:Andrea Gabrieli
Z:©
%%score [ 1 2 3 4 ]
L:1/8
Q:1/4=120
M:2/2
K:F
V:1 treble nm="Soprano" snm="S"
V:2 treble nm="Alto" snm="A"
V:3 treble-8 nm="Tenor 1" snm="T 1"
V:4 treble-8 nm="Tenor 2" snm="T 2"
V:1
 d8 | G4 d4 | d2 e2 f2 f2 | e2 d4 c2 | d2 d3 c B2 | A2 A2 G4- | G4 z4 | z8 | z8 | z2 B2 c2 d2- | %10
w: Ma-|gnum he-|re- di- ta- tis|mi- ste- ri-|um, mi- * *|ste- ri- um|_|||tem- plum De-|
 dcBA G3 A | B2 A2 z2 B2- | B2 c2 d4 | G4 z2 c2- | cc =B2 cBAG | A2 A2 G4 | z4 z2 B2- | B2 c2 d4- | %18
w: |* i, tem-|* plum De-|i fa-|* ctus est u- * * *|* te- rus,|tem-|* plum De-|
 d2 G4 g2- | gg ^f2 gf_ed | _e2 e2 d2 B2- | B2 A2 G4 | G2 G2 ^F2 A2- | A2 A2 B2 B2- | BA G4 F2 | %25
w: * i fa-|* ctus est u- * * *|* te- rus, fa|_ ctus est|u- te- rus ne-|* sci- ens vi-||
 G4 z2 d2 | d2 d2 c4 | A8 | z8 | z4 z2 d2 | f2 e2 f4 | d4 z4 | z2 d2 d2 c2 | B2 B2 A2 d2- | %34
w: rum non|est pol- lu-|tus,||non|est plo- lu-|tus|ex e- a|car- nem as- su-|
"^#" d2 c2 d4 | =B6 c2 | d4 c2 f2- | f2 e2 d2 c2 | B4 A4 | z8 | z8 | z4 d4- | d2 d2 d4 | _e6 d2 | %44
w: * * mens,|o- mnes|gen- tes ve-|* ni- ent di-|cen- tes|||glo-|* ri- a|ti- bi|
 c2 c2 B2 d2- | dcBA B2 A2 | F2 B4 G2 | cB B4 A2 | B4 z4 | z2 f3 edc | d2 B2 A2 A2 | A2 G4 F2 | %52
w: Do- mi- ne, glo-|* * * * * ri-|a ti- bi|Do- * * mi-|ne,|glo- * * *|* ri- a ti-|bi Do- mi-|
 G8 |] %53
w: ne.|
V:2
 z8 | z4 G4- | G4 D4 | G4 G2 A2 | B2 B2 A2 G2- | G2 F2 G2 B2 | B6 AG | A2 A2 G3 F | E4 z2 F2- | %9
w: |Ma-|* gnum|he- re- di-|ta- tis mi- ste-|* ri- um, mi-|ste- * *|* ri- um, _|_ tem-|
 F2 G2 A4 | D6 G2- |"^-natural" GG ^F2 GF_ED | _E2 E2 D4 | z4 A4- | A2 G2 E3 D/E/ | F4 D4 | z8 | %17
w: * plum De-|i fa-|* ctus est u- * * *|* te- rus,|tem-|* plum De- * *|* i||
 z2 G3 G ^F2 |"^-natural" GF_ED E2 E2 | D4 B,4 | C4 D2 G,2 | D3 D _E2 D2- | D2 C2 D2 ^F2- | %23
w: fa- ctus est|u- * * * * te-|rus tem-|plum De- i,|fa- ctus est u-|* te- rus ne-|
 F2 ^F2 G4 | D8 | D8 | z2 D2 F2 E2 | F4 D2 A2 | A2 G2 F2 F2 | F2 A4 G2 | A4 z2 B2 | B2 B2 A4 | %32
w: * sci- ens|vi-|rum|non est pol-|lu- tus ex|e- a car- nem|as- su- *|mens, non|est pol- lu-|
 F2 F2 F2 C2 | G4 C2 F2 | E4 ^F4 | G6 G2 | B4 A2 A2- | A2 G2 B2 A2 | AG/F/ G2 A2 F2- | %39
w: tus ex e- a|car- nem as-|su- mens|o- mnes|gen- tes ve-|* ni- ent di-|cen- * * * tes, ve-|
 F2 G2 F2 F2 | G4 G4 | z4 A4- | A2 A2 =B4 | c6 G2 | G2 G2 G4 | D6 D2 | D4 _E4- | E2 D2 C2 C2 | %48
w: * ni- ent di-|cen- tes|glo-|* ri- a|ti- bi|Do- mi- ne,|glo- ri-|a ti-|* bi Do- mi-|
 B,2 B3 AGF | G2 F2 D2 F2- | FD_ED F2 F2 | FEDC D2 D2 | D8 |] %53
w: ne, glo- * * *|* ri- a ti-|* * * * * bi|Do- * * * * mi-|ne.|
V:3
 z8 | z8 | z8 | z8 | z4 d4- | d4 G4 | d4 d2 e2 | f2 f2 e2 d2- | d2 c2 d4 | z8 | B6 c2 | d4 G4 | %12
w: ||||Ma-|* gnum|he- re- di-|ta- tis mi- ste-|* ri- um||tem- plum|De- i|
 z4 z2 f2- | ff e2 fedc | d2 d2 c4 | z4 B4 | c2 dc BAGF | G4 A2 A2 | B2 c4 G2 | B2 A2 G2 G2- | %20
w: fa-|* ctus est u- * * *|* te- rus,|tem-|plum De- * * * * *|* i, tem-|plum De- i|fa- ctus est u-|
 GFGA Bc d2- | d2 A2 B4- | B2 AG A2 d2- | d2 d2 d3 c | B4 A4 | G8- | G4 z4 | z2 d2 d2 d2 | %28
w: |* te- rus|_ _ _ _ ne-|* sci- ens _|_ vi-|rum|_|non est pol-|
 c4 A2 A2 | B2 A2 B4 | A3 B/c/ d4 | z2 f2 f2 e2 | d2 d2 d2 f2- | f2 e2 f4 | z8 | d6 e2 | f8 | %37
w: lu- tus, non|est pol- lu-|* * * tus|ex e- a|car- nem as- su-|* * mens||o- mnes|gen-|
 c4 z4 | z8 | z2 d4 c2 | _e2 d2 dc/B/ c2 | d4 ^f4- | f2 ^f2 g4 | g6 d2 | _e2 e2 d4 | z8 | z8 | z8 | %48
w: tes||ve- ni-|ent di- cen- * * *|tes glo-|* ri- a|ti- bi|Do- mi- ne,||||
 z4 B4- | B2 B2 B4- | B4 c4- | c2 B2 A2 A2 | G8 |] %53
w: glo-|* ri- a|_ ti-|* bi Do- mi-|ne.|
V:4
 z8 | z8 | z8 | z8 | z8 | z8 | G8 | D4 G4 | G2 A2 B2 B2 | A2 G4 F2 | G4 z4 | z8 | z8 | z4 z2 F2- | %14
w: ||||||Ma-|gnum he-|re- di- ta- tis|mi- ste- ri-|um|||tem-|
 F2 G2 A4 | D4 z2 G2- |"^-natural" GG ^F2 GF_ED | _E2 E2 D4 | z4 C4 |"^#" D4 _E4 | C4 z2 G2- | %21
w: * plum De-|i fa-|* ctus est u- * * *|* te- rus|tem-|plum De-|i fa-|
"^-natural" GG ^F2 GF_ED | _E2 E2 D2 D2- | D2 D2 G4- | G4 D4 | G4 z2 B2 | B2 B2 A4 | D4 z2 D2 | %28
w: * ctus est u- * * *|* te- rus ne-|* sci- ens|_ vi-|rum non|est pol- lu-|tus, non|
 F2 E2 F4 | D6 d2 | d2 c2 B2 B2 | B2 d4 c2 | d2 B2 B2 A2 | G4 F2 D2 | A4 d4 | G6 c2 | B4 F4 | z8 | %38
w: est pol- lu-|tus ex|e- a car- nem|as- su- *|mens, ex e- a|car- nem as-|su- mens|o- mnes|gen- tes||
 z8 | B6 A2 | G2 F2 _E4 | D4 d4- | d2 d2 G4 | c6 =B2 |"^b" c2 c2 G4- | G4 z4 | z8 |"^#" z8 | %48
w: |ve- ni-|ent di- cen-|tes, glo-|* ri- a|ti- bi|Do- mi- ne,|_|||
 z2 G3 F_ED | _E2 D2 B,2 B2- | B2 G2 F3 E | D4 D4 | G8 |] %53
w: glo- * * *|* ri- a ti-|* bi Do- *|* mi-|ne.|

